svgs/light/calculator.svg

<svg xmlns="http://www.w3.org/2000/svg" viewBox="0 0 384 512"><!-- Font Awesome Pro 6.0.0-alpha2 by @fontawesome - https://fontawesome.com License - https://fontawesome.com/license (Commercial License) --><path d="M320 0H64C28.656 0 0 28.656 0 64V448C0 483.344 28.656 512 64 512H320C355.344 512 384 483.344 384 448V64C384 28.656 355.344 0 320 0ZM352 448C352 465.645 337.645 480 320 480H64C46.355 480 32 465.645 32 448V160H352V448ZM352 128H32V64C32 46.355 46.355 32 64 32H320C337.645 32 352 46.355 352 64V128ZM80 432H208C216.844 432 224 424.844 224 416S216.844 400 208 400H80C71.156 400 64 407.156 64 416S71.156 432 80 432ZM288 440C301.254 440 312 429.254 312 416S301.254 392 288 392S264 402.746 264 416S274.746 440 288 440ZM288 344C301.254 344 312 333.254 312 320S301.254 296 288 296S264 306.746 264 320S274.746 344 288 344ZM288 248C301.254 248 312 237.254 312 224S301.254 200 288 200S264 210.746 264 224S274.746 248 288 248ZM192 344C205.254 344 216 333.254 216 320S205.254 296 192 296S168 306.746 168 320S178.746 344 192 344ZM192 248C205.254 248 216 237.254 216 224S205.254 200 192 200S168 210.746 168 224S178.746 248 192 248ZM96 344C109.254 344 120 333.254 120 320S109.254 296 96 296S72 306.746 72 320S82.746 344 96 344ZM96 248C109.254 248 120 237.254 120 224S109.254 200 96 200S72 210.746 72 224S82.746 248 96 248Z"/></svg>

<svg xmlns="http://www.w3.org/2000/svg" viewBox="0 0 384 512"><!--! Font Awesome Pro 6.3.0 by @fontawesome - https://fontawesome.com License - https://fontawesome.com/license (Commercial License) Copyright 2023 Fonticons, Inc. --><path d="M320 0H64C28.66 0 0 28.66 0 64v384c0 35.34 28.66 64 64 64h256c35.34 0 64-28.66 64-64V64C384 28.66 355.3 0 320 0zM352 448c0 17.64-14.36 32-32 32H64c-17.64 0-32-14.36-32-32V160h320V448zM352 128H32V64c0-17.64 14.36-32 32-32h256c17.64 0 32 14.36 32 32V128zM80 432h128c8.844 0 16-7.156 16-16s-7.156-16-16-16h-128C71.16 400 64 407.2 64 416S71.16 432 80 432zM288 440c13.25 0 24-10.75 24-24s-10.75-24-24-24s-24 10.75-24 24S274.7 440 288 440zM288 344c13.25 0 24-10.75 24-24S301.3 296 288 296S264 306.7 264 320S274.7 344 288 344zM288 248c13.25 0 24-10.75 24-24S301.3 200 288 200S264 210.7 264 224S274.7 248 288 248zM192 344c13.25 0 24-10.75 24-24S205.3 296 192 296S168 306.7 168 320S178.7 344 192 344zM192 248c13.25 0 24-10.75 24-24S205.3 200 192 200S168 210.7 168 224S178.7 248 192 248zM96 344c13.25 0 24-10.75 24-24S109.3 296 96 296S72 306.7 72 320S82.75 344 96 344zM96 248c13.25 0 24-10.75 24-24S109.3 200 96 200S72 210.7 72 224S82.75 248 96 248z"/></svg>
